!!!SOCIAL_FUNCTION:	songs in honor of an individual
!!!PDT:	1918

Specific Region: Dakotas, Minnesota, Montana, Nebraska
!!!REG: Dakotas and Montana
!!!LING_GROUP: Siouan
!!!LANG: Tone
!!!OTL@ENG: They Depend Upon You
!!!ONM: No. 228
**kern
*Ifeme
*clefG2
*k[b-e-]
*M3/4
*MM58
8d
=1
8.dd
16dd
8dd
16dd
48ee-
48ff
48ee-
(16dd
16cc)
24cc
(24dd
24cc)
=2||
*M2/4
4b-
4g
=3
4.g
8a
=4
8.b-
16b-
4b-
=5||
*M3/4
4b-
(8b-
8cc)
(16dd
8b-)
16b-
=6||
*M2/4
4b-
4g
=7
8g
24a
24b-
24a
8.g
16f
=8||
*M3/4
16d
[8.d
2d]
=9||
*M2/4
4.d
8d
=10
4g
8.g
16g
=11||
*M3/4
4g
4g
8.g
16a
=12||
*M2/4
4b-
4b-
=13||
*M3/4
4g
4g
(16g
8.f)
=14
4d
2r
==
*-
!!!CNT: Native American -- Sioux
!!!MRD: 1911/07//-1914///
!!!OCL: Frances Densmore
!!!YOR1: Teton Sioux Music, Bulletin 61,
!!!YOR2: Bureau of American Ethnology, Smithsonian Institution
!!!PPR: Government Printing Office
!!!PPP: Washington, D.C.
!!!PDT: 1918///
!!!ENC: Craig Stuart Sapp
!!!END: 2002/03/25/
!!!EEV: 2002/03/31/
!!!AGN: Song in Honor of an Individual
!!!MPN@@SIO: Ini'laoeng'wing
!!!MPN@ENG: Silent Woman
!!!TXO: Teton Sioux
!!!MLC: Standing Rock Reservation, South Dakota, United States of America
!!!ARL: 45.9/-100.7#
!!!catalog: Catalogue No. 683
!!!PPG: 506
!!!EFL: 233/245
!!!VTS: 3192976567
